src/places/16/desktop.svg

<svg width="16" height="16" version="1.1" viewBox="0 0 16 16" xmlns="http://www.w3.org/2000/svg">
 <defs>
  <style id="current-color-scheme" type="text/css">.ColorScheme-Text { color:#363636; }</style>
 </defs>
 <path d="m2 1c-1.108 0-2 0.892-2 2v9c0 1.108 0.892 2 2 2h12c1.108 0 2-0.892 2-2v-9c0-1.108-0.892-2-2-2h-12zm0 1h12c0.554 0 1 0.446 1 1h-14c0-0.554 0.446-1 1-1zm-1 2h14v8c0 0.554-0.446 1-1 1h-12c-0.554 0-1-0.446-1-1v-8zm3 6c-0.554 0-1 0.446-1 1s0.446 1 1 1h8c0.554 0 1-0.446 1-1s-0.446-1-1-1h-8z" style="fill:currentColor" class="ColorScheme-Text"/>
</svg>

<svg xmlns="http://www.w3.org/2000/svg" width="16" height="16">
    <path d="M2 1C.892 1 0 1.892 0 3v9c0 1.108.892 2 2 2h12c1.108 0 2-.892 2-2V3c0-1.108-.892-2-2-2H2zm0 1h12c.554 0 1 .446 1 1H1c0-.554.446-1 1-1zM1 4h14v8c0 .554-.446 1-1 1H2c-.554 0-1-.446-1-1V4zm3 6c-.554 0-1 .446-1 1s.446 1 1 1h8c.554 0 1-.446 1-1s-.446-1-1-1H4z" style="fill:currentColor;color:#050505;opacity:.7"/>
</svg>
